X:32
T:Sejde bíró uram
M:4/4
L:1/4
K:F
A/G/A/F/ D<C | F/G/ A/F/ | G<D D2 |
dcA<c | dAGc | d<A A2 |
dc d<c | BAGc | A/G/A/G/ F> G |
A/G/A/F/ D<C | F/G/ A/F/ | G<D D2 |

